templates/main/source/images/tinkoff.svg

<?xml version="1.0" encoding="utf-8"?>
<svg width="169px" height="40px" viewBox="0 0 169 40" version="1.1" xmlns:xlink="http://www.w3.org/1999/xlink" xmlns="http://www.w3.org/2000/svg">
  <desc>Created with Lunacy</desc>
  <g id="tinkoff">
    <path d="M0 0L168.317 0L168.317 39.3862L0 39.3862L0 0Z" id="Rectangle" fill="#FFDD2D" stroke="none" />
    <path d="M5.71034 3.53103L0 3.53103L0 0L15.5241 0L15.5241 3.50345L9.84138 3.50345L9.84138 13.1586L5.70345 13.1586L5.71034 3.53103Z" transform="translate(13.1015625 13.103516)" id="Path" fill="#000000" stroke="none" />
    <path d="M14.4207 0L14.4207 13.1034L10.4207 13.1034L10.4207 5.51724L3.52414 13.1517L0 13.1517L0 0L4 0L4 7.66207L10.8897 0L14.4207 0Z" transform="translate(30.097656 13.103516)" id="Path" fill="#000000" stroke="none" />
    <path d="M4 13.1517L0 13.1517L0 0L4 0L4 4.82759L10.4276 4.82759L10.4276 0L14.4276 0L14.4276 13.1034L10.4276 13.1034L10.4276 8.27586L4 8.27586L4 13.1517Z" transform="translate(47.40625 13.103516)" id="Path" fill="#000000" stroke="none" />
    <path d="M0 0L0 13.1517L8.08276 13.131C8.9296 13.1475 9.77458 13.0454 10.5931 12.8276C12.6743 12.3167 14.113 10.4176 14.0414 8.27586C14.1326 6.31437 12.9191 4.52777 11.0621 3.88966C10.1156 3.60117 9.12607 3.47981 8.13793 3.53103L4 3.53103L4 0L0 0ZM7.44828 9.97931L4 9.97931L3.97241 6.67586L7.42069 6.67586C7.94174 6.64308 8.46452 6.70142 8.96552 6.84828C9.59765 7.03222 10.0275 7.61766 10.0138 8.27586C10.0129 8.93212 9.62288 9.52535 9.02069 9.78621C8.51613 9.96115 7.98017 10.027 7.44828 9.97931Z" transform="translate(64.72266 13.103516)" id="Shape" fill="#000000" fill-rule="evenodd" stroke="none" />
    <path d="M4 13.1517L0 13.1517L0 0L4 0L4 4.96552L5.09655 4.96552L9.92414 0.0275862L14.9448 0.0275862L8.54483 6.31035L15.1931 13.1517L9.86897 13.1517L5.09655 8.18621L4 8.18621L4 13.1517Z" transform="translate(80.60547 13.103516)" id="Path" fill="#000000" stroke="none" />
    <path d="M8.6069 13.8966C13.9586 13.8966 17.1862 10.8621 17.1862 6.94483C17.1862 3.03448 14 0 8.61379 0C3.22759 0 0 3.02759 0 6.94483C0 10.8621 3.25517 13.8966 8.6069 13.8966ZM8.6069 3.22759C11.2552 3.22759 12.9931 4.8 12.9931 6.94483C12.9931 9.09655 11.2966 10.6759 8.61379 10.6759C5.93103 10.6759 4.22069 9.08965 4.22069 6.94483C4.22069 4.8 5.95862 3.22759 8.6069 3.22759Z" transform="translate(95.52344 12.772461)" id="Shape" fill="#000000" fill-rule="evenodd" stroke="none" />
    <path d="M12.0276 13.0966C17.0759 12.9862 20.0828 11.0276 20.0828 7.27586C20.0828 3.53103 17.0759 1.37931 12.0276 1.32414L12.0276 0L8.02759 0L8.02759 1.30345C3.0069 1.41379 0 3.53103 0 7.28276C0 11.0345 3.0069 12.9931 8.02759 13.1034L8.02759 14.4207L12.0276 14.4207L12.0276 13.0966ZM8.02759 4.13793C5.26897 4.24828 4.05517 5.51724 4.05517 7.27586C4.05517 9.03448 5.26897 10.1724 8.02759 10.2828L8.02759 4.13793ZM12.0276 4.13793C14.8138 4.24828 16 5.51724 16 7.27586C16 9.04138 14.8138 10.1724 12.0276 10.2828L12.0276 4.13793Z" transform="translate(113.86719 12.4140625)" id="Shape" fill="#000000" fill-rule="evenodd" stroke="none" />
    <path d="M12.0276 13.0966C17.0759 12.9862 20.0828 11.0276 20.0828 7.27586C20.0828 3.53103 17.0966 1.37931 12.0276 1.32414L12.0276 0L8.02759 0L8.02759 1.30345C3.0069 1.41379 0 3.53103 0 7.28276C0 11.0345 3.0069 12.9931 8.02759 13.1034L8.02759 14.4207L12.0276 14.4207L12.0276 13.0966ZM8.04828 4.13793C5.28966 4.24828 4.07586 5.51724 4.07586 7.27586C4.07586 9.03448 5.28966 10.1724 8.04828 10.2828L8.04828 4.13793ZM12.0483 4.13793C14.8345 4.24828 16.0207 5.51724 16.0207 7.27586C16.0207 9.04138 14.8345 10.1724 12.0483 10.2828L12.0483 4.13793Z" transform="translate(135.08984 12.4140625)" id="Shape" fill="#000000" fill-rule="evenodd" stroke="none" />
  </g>
</svg>

<svg width="169" height="40" viewBox="0 0 169 40" xmlns:xlink="http://www.w3.org/1999/xlink" xmlns="http://www.w3.org/2000/svg"><g id="tinkoff" stroke="none"><path d="M0 0h168.317v39.386H0V0z" id="Rectangle" fill="#FFDD2D"/><path d="M5.71 3.531H0V0h15.524v3.503H9.841v9.656H5.703L5.71 3.53z" transform="translate(13.102 13.104)" id="Path" fill="#000"/><path d="M14.42 0v13.103h-4V5.517l-6.896 7.635H0V0h4v7.662L10.89 0h3.53z" transform="translate(30.098 13.104)" id="Path" fill="#000"/><path d="M4 13.152H0V0h4v4.828h6.428V0h4v13.103h-4V8.276H4v4.876z" transform="translate(47.406 13.104)" id="Path" fill="#000"/><path d="M0 0v13.152l8.083-.021a9.075 9.075 0 002.51-.303 4.531 4.531 0 003.448-4.552 4.42 4.42 0 00-2.979-4.386 8.517 8.517 0 00-2.924-.359H4V0H0zm7.448 9.98H4l-.028-3.304h3.449a4.49 4.49 0 011.545.172c.632.184 1.062.77 1.048 1.428a1.648 1.648 0 01-.993 1.51 3.767 3.767 0 01-1.573.193z" transform="translate(64.723 13.104)" id="Shape" fill="#000" fill-rule="evenodd"/><path d="M4 13.152H0V0h4v4.966h1.097L9.924.028h5.02l-6.4 6.282 6.65 6.842H9.868L5.097 8.186H4v4.966z" transform="translate(80.605 13.104)" id="Path" fill="#000"/><path d="M8.607 13.897c5.352 0 8.58-3.035 8.58-6.952C17.186 3.035 14 0 8.613 0 3.228 0 0 3.028 0 6.945c0 3.917 3.255 6.952 8.607 6.952zm0-10.67c2.648 0 4.386 1.573 4.386 3.718 0 2.152-1.696 3.73-4.38 3.73-2.682 0-4.392-1.585-4.392-3.73s1.738-3.717 4.386-3.717z" transform="translate(95.523 12.772)" id="Shape" fill="#000" fill-rule="evenodd"/><path d="M12.028 13.097c5.048-.11 8.055-2.07 8.055-5.821 0-3.745-3.007-5.897-8.055-5.952V0h-4v1.303C3.007 1.413 0 3.531 0 7.283c0 3.751 3.007 5.71 8.028 5.82v1.318h4v-1.324zm-4-8.96c-2.759.111-3.973 1.38-3.973 3.139 0 1.758 1.214 2.896 3.973 3.007V4.138zm4 0C14.814 4.249 16 5.518 16 7.277c0 1.765-1.186 2.896-3.972 3.007V4.138z" transform="translate(113.867 12.414)" id="Shape" fill="#000" fill-rule="evenodd"/><path d="M12.028 13.097c5.048-.11 8.055-2.07 8.055-5.821 0-3.745-2.986-5.897-8.055-5.952V0h-4v1.303C3.007 1.413 0 3.531 0 7.283c0 3.751 3.007 5.71 8.028 5.82v1.318h4v-1.324zm-3.98-8.96c-2.758.111-3.972 1.38-3.972 3.139 0 1.758 1.214 2.896 3.972 3.007V4.138zm4 0c2.787.111 3.973 1.38 3.973 3.139 0 1.765-1.187 2.896-3.973 3.007V4.138z" transform="translate(135.09 12.414)" id="Shape" fill="#000" fill-rule="evenodd"/></g></svg>
